images/badge/vegetarian.svg

<svg viewBox="0 0 36 36" fill="none" xmlns="http://www.w3.org/2000/svg">
<path d="M0 8C0 3.58172 3.58172 0 8 0H28C32.4183 0 36 3.58172 36 8V28C36 32.4183 32.4183 36 28 36H8C3.58172 36 0 32.4183 0 28V8Z" fill="#1DAA0F"/>
<path d="M26 11C26 14.55 23.3562 17.4844 19.9312 17.9375C19.7094 16.2688 18.975 14.7625 17.8906 13.5844C19.0875 11.4469 21.375 10 24 10H25C25.5531 10 26 10.4469 26 11ZM10 13C10 12.4469 10.4469 12 11 12H12C15.8656 12 19 15.1344 19 19V20V25C19 25.5531 18.5531 26 18 26C17.4469 26 17 25.5531 17 25V20C13.1344 20 10 16.8656 10 13Z" fill="white"/>
</svg>

<svg xmlns="http://www.w3.org/2000/svg" fill="none" viewBox="0 0 36 36"><path fill="#1DAA0F" d="M0 8a8 8 0 0 1 8-8h20a8 8 0 0 1 8 8v20a8 8 0 0 1-8 8H8a8 8 0 0 1-8-8z"/><path fill="#fff" d="M26 11a7 7 0 0 1-6.069 6.938 7.97 7.97 0 0 0-2.04-4.354A7 7 0 0 1 24 10h1c.553 0 1 .447 1 1m-16 2c0-.553.447-1 1-1h1a7 7 0 0 1 7 7v6a.999.999 0 1 1-2 0v-5a7 7 0 0 1-7-7"/></svg>
